!!!OTL: Geistliche Lieder im Jacobston. / d. Vierte Art. / (Ein unterricht-Gesang, wie man bei Kirchfahrten buessen soll.)
!!!ARE: Europa, Mitteleuropa, Deutschland
!!!SCT: A0611D
!!!TXL: @@GMH
!!!YEM: Copyright 1995, estate of Helmut Schaffrath.
**kern	**text
*M4/2	*
*met(c|)	*
*clefC4	*
*k[b-]	*
*g:dor	*
!LO:TX:a:t=dor. tr.	!
{1G	Jn
=1	=1
2B-	Got-
2B-	-tes
2c	na-
2c	-men
=2	=2
2d	he-
*lig	*
4d	-ben
4c	wir
*Xlig	*
2.d}	an,
{4c	Gott
=3	=3
!LO:TX:a:t=..	!
2B-	wolln
2c	wir
2e-	lo-
4d	-ben
4d	im
=4	=4
*lig	*
4c	höch-
4B-	.
*Xlig	*
*lig	*
4A	-ſten
4B-	.
*Xlig	*
2.c}	Thron,
{4c	von
=5	=5
2d	Sün-
2d	-den
2c	wolln
2c	wir
=6	=6
1A	laſ-
1F	-ſen,
=7	=7
1r}	.
{1F	da-
=8	=8
2B-	-mit
2B-	vns
2d	doch
2d	Gott
=9	=9
*lig	*
4c	wull
4B-	.
*Xlig	*
*lig	*
4A	bey-
4B-	.
*Xlig	*
2.c}	-ſtahn
{4d	auf
=10	=10
*lig	*
4B-	vn-
4A	.
*Xlig	*
2G	-ſer
2G	Pil-
2d	-ger-
=11	=11
*lig	*
2B-	-ſtraſ-
2A	.
*Xlig	*
1G/ll	-ſen.
=12	=12
1r}	.
==	==
!!!GTL: Geistliche Volkslieder
!!!AGN: Romanze, Ballade, Lied, religioeses Lied
!! Dresdner Hs. M. 53 (um 1560)
!!!ONB: ESAC (Essen Associative Code) Database: ALTDEU
!!!AMT: simple quadruple
!!!AIN: vox
!!!EED: Helmut Schaffrath
!!!EEV: 1.0
!!!RDF**kern: l = terminal long
!!!AMD: Dorian
!!!URL-scan: https://rosdok.uni-rostock.de/mcrviewer/recordIdentifier/rosdok_ppn738218359/iview2/phys_0795.iview2?x=-1021.1722681204792&y=846.3274714434519&scale=0.35534665417946304&rotation=0&layout=singlePageLayout&logicalDiv=log_0007
!!!ENC: Anna Maria Matuszewska
!!!EEV: 2024/25/03
*-	*-
